X:1
T: How Much Has She Got
C:
R:Jig
Q:180
K:Am
M:6/8
L:1/16
g2|a2e2d2 c2B2A2|e2c2A2 A4g2|a2e2d2 c2B2A2|d2B2G2 G4g2|a2e2d2 c2B2A2|d2e2f2 e2f2g2|a2g2f2 g2f2e2|d2B2G2 G4g2|
a2e2d2 c2B2A2|e2c2A2 A4g2|a2e2d2 c2B2A2|d2B2G2 G4g2|a2e2d2 c2B2A2|d2e2f2 e2f2g2|a2g2f2 g2f2e2|d2B2G2 G4B2|
A4a2 a2e2c2|a2e2c2 A2B2A2|G4g2 g2d2B2|g2d2B2 G4B2|A4a2 a2e2c2|d2e2f2 e2f2g2|a2g2f2 g2f2e2|d2B2G2 A4B2|
A4a2 a2e2c2|a2e2c2 A2B2A2|G4g2 g2d2B2|g2d2B2 G4B2|A4a2 a2e2c2|d2e2f2 e2f2g2|a2g2f2 g2f2e2|d2B2G2 A4||
